X:1
T:Lord, We Have Come to Worship You - LORD, WE HAVE COME (SWERD)
T:Lord, We Have Come to Worship You - LORD, WE HAVE COME (SWERD)
T:Scott Werdebaugh, 2008
T:Scott Werdebaugh, 2008
T:Copyright © 2008 by Scott Werdebaugh and New Heart Music - May copy and use freely for Christian worship and devotions with no alterations. All Other Rights Reserved
T:Copyright © 2008 by Scott Werdebaugh and New Heart Music - May copy and use freely for Christian worship and devotions with no alterations. All Other Rights Reserved
C:Scott Werdebaugh, 2008
Z:Copyright © 2008 by Scott Werdebaugh and New Heart Music - May copy and use freely for
Z:Christian worship and devotions with no alterations. All Other Rights Reserved
%%score ( 1 2 ) 3
L:1/8
Q:1/4=108
M:2/4
K:C
V:1 treble 
V:2 treble 
V:3 bass 
V:1
"^Worshipfully""^A capella"!mp! [CE]2 [DF][EG] | [B,D]4 | [DF]2 [EG][DF] | [CE]4 | [Ec]2 BA | %5
w: Lord, we have|come|to wor- ship|You,|For You a-|
!mf! [Ad]2 [GB]2 | [GB][GB] [Gc][^FA] | [DG]4 | [Ec]2 [GB][FA] | [EG]2 [CE]2 | [FA]2 [EG][DF] | %11
w: lone are|wor- thy of our|praise.|Come fill us|now with|Your Pres- ence,|
 [CE]4 | [DF]2 [CE][B,D] | [EG]2 [CE]2 | [B,E]2 [B,F][B,D] |!mp! C4 |!p!"^rit." [CE]2 [CF][CG] | %17
w: Lord;|May all we|do bring|hon- or to|You.|May all we|
[Q:1/4=98] [B,D]2 [B,D][B,E] |[Q:1/4=88] [CF]2 [B,E][B,D] |[Q:1/4=84]!pp! !fermata!C4 |] %20
w: do bring all|hon- or to|You.|
V:2
 x4 | x4 | x4 | x4 | x2 E2 | x4 | x4 | x4 | x4 | x4 | x4 | x4 | x4 | x4 | x4 | C4 | x4 | x4 | x4 | %19
 C4 |] %20
V:3
!mp! [C,G,]2 [B,,G,][C,E,] | [G,,G,]4 | [G,B,]2 [C,C][B,,G,] | [C,G,]4 | [C,G,]2 [E,G,][C,E,] | %5
!mf! [D,^F,]2 [D,G,]2 | [D,G,][D,G,] [C,G,][D,^F,] | [G,B,]4 | [C,G,]2 [D,G,][F,C] | %9
 [G,C]2 [C,G,]2 | [C,F,]2 [C,E,][B,,G,] | [C,G,]4 | [G,,B,]2 [C,G,][G,,G,] | [C,G,]2 [E,G,]2 | %14
 [G,,G,]2 [G,,D,][G,,G,] |!mp! [C,E,]4 |!p! [C,G,]2 [A,,F,][C,E,] | [G,,G,]2 [G,,G,][G,,F,] | %18
 [A,,F,]2 [G,,G,][G,,F,] |!pp! !fermata![C,E,]4 |] %20

